wasmegg/rockets-tracker/src/badges/badge-21.svg

<svg xmlns="http://www.w3.org/2000/svg" xml:space="preserve" style="fill-rule:evenodd;clip-rule:evenodd;stroke-linejoin:round;stroke-miterlimit:2" viewBox="0 0 64 64"><path d="M.291-.037a.5.5 0 0 0-.176.001l-.019.001q.033-.067.073-.13A.8.8 0 0 0 .244-.33q.025-.075.04-.153A.5.5 0 0 0 .288-.64C.281-.689.256-.74.209-.762A.13.13 0 0 0 .128-.77a.12.12 0 0 0-.094.093l-.008.052c-.002.013.003.026.017.03.011.003.028-.004.03-.017q.003-.033.012-.065l.002-.005.002-.004.004-.006.002-.004.011-.011.004-.002.009-.005.008-.004.004-.002.017-.004h.019l.005.001.008.002.006.002.012.007.003.002.013.013.002.003.009.014.003.007.001.001.001.003.009.033.002.008.001.006.001.016-.002.075-.001.014-.001.007-.002.01-.014.067-.025.085-.015.042-.007.019-.002.005-.001.003-.005.01-.041.077-.047.081-.042.085a.03.03 0 0 0-.002.019.02.02 0 0 0 .017.017C.09.017.128.011.166.008L.224.006l.028.002.015.001.008.001h.003q.01.002.019-.003a.03.03 0 0 0 .011-.014C.311-.019.304-.035.291-.037" style="fill:#fff;fill-rule:nonzero" transform="matrix(56 0 0 56 14.857 53.28)"/><path d="M.252-.032C.248-.046.235-.051.222-.049H.221l-.004.001-.012.001-.021.001-.023.001Q.164-.13.16-.216L.159-.314l.005-.098Q.17-.491.171-.57c0-.053-.003-.107.003-.16C.176-.744.162-.755.15-.755a.02.02 0 0 0-.022.014l-.002.003-.044.087-.024.042-.013.021-.008.01-.001.002-.004.004q-.013.018 0 .035c.009.009.027.011.035 0a.5.5 0 0 0 .055-.084v.089C.12-.466.113-.401.111-.336c-.003.097.006.194.001.291L.05-.046a.025.025 0 0 0-.025.024c0 .014.011.025.025.025l.082.001h.006a1 1 0 0 0 .097-.006c.013-.002.02-.018.017-.03" style="fill:#fff;fill-rule:nonzero" transform="matrix(56 0 0 56 33.56 53.28)"/></svg>

<?xml version="1.0" encoding="UTF-8" standalone="no"?>
<!DOCTYPE svg PUBLIC "-//W3C//DTD SVG 1.1//EN" "http://www.w3.org/Graphics/SVG/1.1/DTD/svg11.dtd">
<svg width="100%" height="100%" viewBox="0 0 64 64" version="1.1" xmlns="http://www.w3.org/2000/svg" xmlns:xlink="http://www.w3.org/1999/xlink" xml:space="preserve" xmlns:serif="http://www.serif.com/" style="fill-rule:evenodd;clip-rule:evenodd;stroke-linejoin:round;stroke-miterlimit:2;">
    <g transform="matrix(1,0,0,1,-15.9495,22.2681)">
        <g transform="matrix(56,0,0,56,30.8061,31.0123)">
            <path d="M0.291,-0.037C0.251,-0.043 0.211,-0.045 0.171,-0.042C0.153,-0.04 0.134,-0.038 0.115,-0.036C0.109,-0.036 0.103,-0.035 0.096,-0.035C0.118,-0.08 0.142,-0.123 0.169,-0.165C0.201,-0.216 0.225,-0.273 0.244,-0.33C0.26,-0.38 0.275,-0.431 0.284,-0.483C0.293,-0.535 0.296,-0.587 0.288,-0.64C0.281,-0.689 0.256,-0.74 0.209,-0.762C0.183,-0.774 0.155,-0.776 0.128,-0.77C0.102,-0.764 0.075,-0.749 0.059,-0.728C0.047,-0.713 0.039,-0.696 0.034,-0.677C0.03,-0.66 0.028,-0.642 0.026,-0.625C0.024,-0.612 0.029,-0.599 0.043,-0.595C0.054,-0.592 0.071,-0.599 0.073,-0.612C0.076,-0.634 0.078,-0.656 0.085,-0.677C0.086,-0.678 0.087,-0.681 0.087,-0.682C0.088,-0.683 0.089,-0.685 0.089,-0.686C0.09,-0.688 0.092,-0.69 0.093,-0.692C0.094,-0.694 0.094,-0.695 0.095,-0.696L0.106,-0.707C0.107,-0.707 0.108,-0.708 0.11,-0.709C0.113,-0.711 0.116,-0.713 0.119,-0.714C0.121,-0.716 0.124,-0.717 0.127,-0.718C0.128,-0.719 0.13,-0.719 0.131,-0.72C0.137,-0.722 0.142,-0.723 0.148,-0.724L0.152,-0.724C0.155,-0.725 0.158,-0.725 0.16,-0.724L0.167,-0.724C0.169,-0.724 0.171,-0.723 0.172,-0.723C0.175,-0.723 0.178,-0.722 0.18,-0.721C0.181,-0.721 0.185,-0.719 0.186,-0.719C0.19,-0.717 0.194,-0.714 0.198,-0.712C0.199,-0.711 0.2,-0.711 0.201,-0.71L0.214,-0.697C0.215,-0.696 0.216,-0.695 0.216,-0.694C0.22,-0.689 0.222,-0.685 0.225,-0.68C0.226,-0.678 0.227,-0.675 0.228,-0.673C0.229,-0.673 0.229,-0.672 0.229,-0.672C0.229,-0.671 0.23,-0.67 0.23,-0.669C0.234,-0.658 0.237,-0.647 0.239,-0.636C0.24,-0.633 0.24,-0.631 0.241,-0.628C0.241,-0.627 0.242,-0.623 0.242,-0.622C0.242,-0.616 0.243,-0.611 0.243,-0.606C0.244,-0.593 0.244,-0.581 0.244,-0.568C0.244,-0.556 0.243,-0.544 0.241,-0.531C0.241,-0.526 0.24,-0.522 0.24,-0.517C0.24,-0.515 0.239,-0.511 0.239,-0.51C0.238,-0.507 0.238,-0.504 0.237,-0.5C0.233,-0.478 0.228,-0.456 0.223,-0.433C0.215,-0.405 0.207,-0.376 0.198,-0.348C0.194,-0.334 0.189,-0.32 0.183,-0.306C0.181,-0.3 0.178,-0.293 0.176,-0.287C0.175,-0.285 0.174,-0.283 0.174,-0.282C0.173,-0.281 0.173,-0.28 0.173,-0.279C0.171,-0.276 0.17,-0.273 0.168,-0.269C0.157,-0.243 0.143,-0.216 0.127,-0.192C0.111,-0.165 0.095,-0.139 0.08,-0.111C0.065,-0.083 0.051,-0.055 0.038,-0.026C0.035,-0.02 0.034,-0.014 0.036,-0.007C0.038,0.001 0.044,0.008 0.053,0.01C0.09,0.017 0.128,0.011 0.166,0.008C0.185,0.006 0.205,0.006 0.224,0.006C0.233,0.007 0.243,0.007 0.252,0.008C0.257,0.008 0.262,0.008 0.267,0.009C0.27,0.009 0.272,0.009 0.275,0.01L0.278,0.01C0.285,0.011 0.291,0.011 0.297,0.007C0.302,0.004 0.306,-0.001 0.308,-0.007C0.311,-0.019 0.304,-0.035 0.291,-0.037Z" style="fill:white;fill-rule:nonzero;"/>
        </g>
        <g transform="matrix(56,0,0,56,49.5101,31.0123)">
            <path d="M0.252,-0.032C0.248,-0.046 0.235,-0.051 0.222,-0.049L0.221,-0.049C0.221,-0.049 0.218,-0.048 0.217,-0.048C0.213,-0.048 0.209,-0.048 0.205,-0.047C0.198,-0.046 0.191,-0.046 0.184,-0.046C0.176,-0.045 0.168,-0.045 0.161,-0.045C0.164,-0.102 0.162,-0.159 0.16,-0.216C0.16,-0.249 0.159,-0.281 0.159,-0.314C0.16,-0.347 0.162,-0.38 0.164,-0.412C0.167,-0.465 0.171,-0.517 0.171,-0.57C0.171,-0.623 0.168,-0.677 0.174,-0.73C0.176,-0.744 0.162,-0.755 0.15,-0.755C0.139,-0.755 0.132,-0.749 0.128,-0.741C0.127,-0.74 0.127,-0.739 0.126,-0.738C0.111,-0.709 0.097,-0.68 0.082,-0.651C0.075,-0.637 0.067,-0.623 0.058,-0.609C0.054,-0.602 0.05,-0.595 0.045,-0.588C0.042,-0.585 0.04,-0.581 0.037,-0.578C0.037,-0.578 0.036,-0.577 0.036,-0.576C0.035,-0.574 0.034,-0.573 0.032,-0.572C0.024,-0.561 0.022,-0.547 0.032,-0.537C0.041,-0.528 0.059,-0.526 0.067,-0.537C0.088,-0.563 0.106,-0.591 0.122,-0.621C0.122,-0.591 0.123,-0.562 0.122,-0.532C0.12,-0.466 0.113,-0.401 0.111,-0.336C0.108,-0.239 0.117,-0.142 0.112,-0.045C0.091,-0.046 0.07,-0.046 0.05,-0.046C0.036,-0.046 0.025,-0.035 0.025,-0.022C0.025,-0.008 0.036,0.003 0.05,0.003C0.077,0.003 0.105,0.004 0.132,0.004L0.138,0.004C0.17,0.004 0.203,0.003 0.235,-0.002C0.248,-0.004 0.255,-0.02 0.252,-0.032Z" style="fill:white;fill-rule:nonzero;"/>
        </g>
    </g>
</svg>
